X:1
T:The Old Rugged Cross
T:Text: George Bennard (1873-1958) Tune: George Bennard (1873-1958) Arrangement Richard Batty 
T:Irregular OLD RUGGED CROSS 
T:The Old Rugged Cross
T:This hymn is in the public domain.  You may freely use this score for personal and congregational worship.  If you reproduce the score, please credit Hymnary.org as the source. 
T:This hymn is in the public domain.  You may freely use this score for personal and congregational worship.  If you reproduce the score, please credit Hymnary.org as the source. 
T:This hymn is in the public domain.  You may freely use this score for personal and congregational worship.  If you reproduce the score, please credit Hymnary.org as the source. 
Z:This hymn is in the public domain.  You may freely use this score for personal and congregational worship.  If you reproduce the score, please credit Hymnary.org as the source.
%%score 1 2
L:1/8
M:6/8
K:C
V:1 treble nm="Piano" snm="Pno."
V:2 bass nm="Piano" snm="Pno."
V:1
 E/F/ | G2 ^F/A/ G2 G/G/ | A>^GB A2 A/-A/ | (B>A)G FGF | E3- E2 E/F/ | G>^FA G2 G/G/ | %6
w: 3~In that|old rug- ged cross, stained with|blood so di- vine, a _|won- and drous beau- ty I|see; _ for 'twas|on that old cross Je- sus|
w: 1~On a|hill far a- way stood an|old rug- ged cross, the _|em- blem of suf- fering and|shame; _ and I|love that old cross, where the|
w: 2~O that|old rug- ged cross, so des-|pised by the world, has a|won- drous at- trac- tion for|me; _ for the|dear Lamb of God left his|
 A>^GB A2 A/-A/ | B>AG fed | c3- c2"^Refrain" B/c/ || d>dd | dcB | c3- c2 c/B/ | A>AA cBA | %13
w: suf- fered and died, to his|par- don and sanc- ti- fy|me. * So I'll|che- rish the|old rug- ged|cross, * till my|tro- phies at last I lay|
w: dear- est and best for a|world of lost sin- ners was|slain. * * *|||||
w: glo- ry a- bove to _|bear it to dark Cal- va-|ry. * * *|||||
 G3- G2 G/c/ | e>ee efe | A3- A2 f/f/ | e>dc GBd | c3- c2 |] %18
w: down; _ I will|cling to the old rug- ged|cross, _ and ex-|change it some day for a|crown. *|
w: |||||
w: |||||
V:2
 z | C,3 C,3 | F,3 F,3 | G,3 G,3 | C,3 G,3 | C,3 E,3 | F,3 ^F,3 | G,3 G,3 | C,3 z z2 || G,3 | G,3 | %11
 C,3 E,3 | F,3 F,3 | C,3 G,3 | C,3 C,3 | F,3 D,3 | G,3 G,3 | C,3- C,2 |] %18

